theme/dist/icons/close-red.svg

<svg fill="none" height="24" viewBox="0 0 24 24" width="24" xmlns="http://www.w3.org/2000/svg"><path d="m13.2143 12 6.1523-7.33359c.1031-.12188.0164-.30703-.143-.30703h-1.8703c-.1101 0-.2156.04921-.2883.13359l-5.0742 6.04923-5.07421-6.04923c-.07031-.08438-.17578-.13359-.28828-.13359h-1.87031c-.15937 0-.24609.18515-.14297.30703l6.15237 7.33359-6.15237 7.3336c-.0231.0272-.03792.0604-.0427.0957-.00478.0354.00068.0713.01573.1037.01506.0323.03907.0596.06919.0787s.06509.0291.10075.0289h1.87031c.11016 0 .21563-.0492.28828-.1336l5.07421-6.0492 5.0742 6.0492c.0703.0844.1758.1336.2883.1336h1.8703c.1594 0 .2461-.1851.143-.307z" fill="#a8071a"/></svg>

<svg width="24" height="24" viewBox="0 0 24 24" fill="none" xmlns="http://www.w3.org/2000/svg"><path d="M13.2143 12 19.3666 4.66641C19.4697 4.54453 19.383 4.35938 19.2236 4.35938H17.3533C17.2432 4.35938 17.1377 4.40859 17.065 4.49297L11.9908 10.5422 6.91659 4.49297C6.84628 4.40859 6.74081 4.35938 6.62831 4.35938H4.758C4.59863 4.35938 4.51191 4.54453 4.61503 4.66641L10.7674 12 4.61503 19.3336C4.59193 19.3608 4.57711 19.394 4.57233 19.4293 4.56755 19.4647 4.57301 19.5006 4.58806 19.533 4.60312 19.5653 4.62713 19.5926 4.65725 19.6117 4.68737 19.6308 4.72234 19.6408 4.758 19.6406H6.62831C6.73847 19.6406 6.84394 19.5914 6.91659 19.507L11.9908 13.4578 17.065 19.507C17.1353 19.5914 17.2408 19.6406 17.3533 19.6406H19.2236C19.383 19.6406 19.4697 19.4555 19.3666 19.3336L13.2143 12z" fill="#a8071a"/></svg>
